dist/img/logo-mobile.svg

<svg width="294" height="169" viewBox="0 0 294 169" fill="none" xmlns="http://www.w3.org/2000/svg">
<path fill-rule="evenodd" clip-rule="evenodd" d="M293.003 0.00305176V168.003L101.884 168.003L101.884 0.00305176L293.003 0.00305176Z" fill="#4AF6CD"/>
<path d="M135.637 60.223C138.797 60.223 141.577 60.683 143.977 61.603C146.417 62.523 148.597 63.903 150.517 65.743L145.537 71.6231C142.657 69.3431 139.637 68.203 136.477 68.203C134.837 68.203 133.577 68.523 132.697 69.1631C131.857 69.7631 131.437 70.6231 131.437 71.7431C131.437 72.543 131.657 73.203 132.097 73.723C132.537 74.2431 133.277 74.7431 134.317 75.223C135.357 75.703 136.997 76.303 139.237 77.0231C143.517 78.3831 146.637 80.1031 148.597 82.1831C150.597 84.2231 151.597 87.0631 151.597 90.7031C151.597 93.3431 150.917 95.6831 149.557 97.7231C148.197 99.7231 146.217 101.283 143.617 102.403C141.057 103.523 138.037 104.083 134.557 104.083C127.917 104.083 122.497 102.063 118.297 98.0231L123.757 91.9631C127.077 94.6831 130.537 96.0431 134.137 96.0431C136.017 96.0431 137.477 95.6431 138.517 94.8431C139.557 94.0031 140.077 92.9031 140.077 91.5431C140.077 90.5831 139.877 89.8031 139.477 89.2031C139.077 88.5631 138.357 88.0031 137.317 87.5231C136.317 87.0031 134.837 86.4431 132.877 85.8431C128.157 84.3631 124.837 82.5831 122.917 80.503C120.997 78.4231 120.037 75.8031 120.037 72.643C120.037 70.1631 120.697 67.9831 122.017 66.1031C123.377 64.223 125.237 62.783 127.597 61.783C129.997 60.743 132.677 60.223 135.637 60.223ZM189.042 89.0231C189.042 91.9031 188.402 94.4831 187.122 96.7631C185.882 99.0431 184.002 100.843 181.482 102.163C178.962 103.443 175.882 104.083 172.242 104.083C166.722 104.083 162.542 102.743 159.702 100.063C156.862 97.3431 155.442 93.6631 155.442 89.0231V61.303L166.542 61.303V88.6631C166.542 91.1831 166.982 93.0431 167.862 94.2431C168.782 95.4031 170.242 95.9831 172.242 95.9831C174.242 95.9831 175.682 95.3831 176.562 94.1831C177.442 92.9831 177.882 91.1431 177.882 88.6631V61.303H189.042V89.0231ZM209.049 87.6431H205.989V103.003L194.889 103.003V61.303L209.349 61.303C215.229 61.303 219.609 62.363 222.489 64.4831C225.409 66.603 226.869 69.863 226.869 74.263C226.869 76.9031 226.249 79.1031 225.009 80.8631C223.809 82.6231 221.869 84.2031 219.189 85.6031L229.569 103.003H217.209L209.049 87.6431ZM205.989 80.0831H209.709C213.549 80.0831 215.469 78.143 215.469 74.263C215.469 72.463 214.929 71.143 213.849 70.3031C212.809 69.463 211.229 69.043 209.109 69.043H205.989V80.0831ZM232.096 103.003V61.303H257.716L256.576 69.1631H243.196V79.1831H254.956V87.0431H243.196V103.003H232.096Z" fill="white"/>
<path d="M23.0769 60.223C28.6369 60.223 33.4169 61.983 37.4169 65.5031L31.9569 71.203C30.4369 70.123 29.0569 69.3431 27.8169 68.8631C26.6169 68.3431 25.2369 68.0831 23.6769 68.0831C20.6769 68.0831 18.3169 69.2431 16.5969 71.563C14.9169 73.883 14.0769 77.4231 14.0769 82.1831C14.0769 85.6631 14.3569 88.4231 14.9169 90.4631C15.4769 92.4631 16.3169 93.9031 17.4369 94.7831C18.5969 95.6631 20.0769 96.1031 21.8769 96.1031C23.6769 96.1031 25.3169 95.7231 26.7969 94.9631V86.3831H22.0569L20.9769 78.7631H37.5369L37.5369 99.5231C35.3769 100.963 32.9369 102.083 30.2169 102.883C27.4969 103.683 24.8169 104.083 22.1769 104.083C9.13689 104.083 2.61689 96.7631 2.61689 82.1231C2.61689 77.5631 3.49689 73.6431 5.25689 70.363C7.05689 67.043 9.49689 64.5231 12.5769 62.8031C15.6569 61.083 19.1569 60.223 23.0769 60.223ZM60.6617 60.223C66.7017 60.223 71.4017 62.143 74.7617 65.983C78.1217 69.823 79.8017 75.2031 79.8017 82.1231C79.8017 86.6431 79.0417 90.5631 77.5217 93.8831C76.0417 97.1631 73.8617 99.6831 70.9817 101.443C68.1017 103.203 64.6617 104.083 60.6617 104.083C54.6217 104.083 49.9217 102.163 46.5617 98.3231C43.2417 94.4831 41.5817 89.0831 41.5817 82.1231C41.5817 77.6031 42.3217 73.703 43.8017 70.423C45.3217 67.1431 47.5017 64.6231 50.3417 62.863C53.2217 61.103 56.6617 60.223 60.6617 60.223ZM60.6617 68.203C58.0617 68.203 56.1417 69.283 54.9017 71.4431C53.7017 73.603 53.1017 77.1631 53.1017 82.1231C53.1017 87.0831 53.7217 90.6631 54.9617 92.8631C56.2017 95.0231 58.1017 96.1031 60.6617 96.1031C63.3017 96.1031 65.2217 95.0231 66.4217 92.8631C67.6217 90.7031 68.2217 87.1231 68.2217 82.1231C68.2217 77.1631 67.6217 73.603 66.4217 71.4431C65.2217 69.283 63.3017 68.203 60.6617 68.203Z" fill="white"/>
<rect x="91.8775" y="83.0031" width="20.0125" height="1" fill="white"/>
</svg>

<svg width="294" height="169" fill="none" xmlns="http://www.w3.org/2000/svg"><path fill-rule="evenodd" clip-rule="evenodd" d="M293.003.003v168H101.884v-168h191.119z" fill="#4AF6CD"/><path d="M135.637 60.223c3.16 0 5.94.46 8.34 1.38 2.44.92 4.62 2.3 6.54 4.14l-4.98 5.88c-2.88-2.28-5.9-3.42-9.06-3.42-1.64 0-2.9.32-3.78.96-.84.6-1.26 1.46-1.26 2.58 0 .8.22 1.46.66 1.98.44.52 1.18 1.02 2.22 1.5 1.04.48 2.68 1.08 4.92 1.8 4.28 1.36 7.4 3.08 9.36 5.16 2 2.04 3 4.88 3 8.52 0 2.64-.68 4.98-2.04 7.02-1.36 2-3.34 3.56-5.94 4.68-2.56 1.12-5.58 1.68-9.06 1.68-6.64 0-12.06-2.02-16.26-6.06l5.46-6.06c3.32 2.72 6.78 4.08 10.38 4.08 1.88 0 3.34-.4 4.38-1.2 1.04-.84 1.56-1.94 1.56-3.3 0-.96-.2-1.74-.6-2.34-.4-.64-1.12-1.2-2.16-1.68-1-.52-2.48-1.08-4.44-1.68-4.72-1.48-8.04-3.26-9.96-5.34-1.92-2.08-2.88-4.7-2.88-7.86 0-2.48.66-4.66 1.98-6.54 1.36-1.88 3.22-3.32 5.58-4.32 2.4-1.04 5.08-1.56 8.04-1.56zm53.405 28.8c0 2.88-.64 5.46-1.92 7.74-1.24 2.28-3.12 4.08-5.64 5.4-2.52 1.28-5.6 1.92-9.24 1.92-5.52 0-9.7-1.34-12.54-4.02-2.84-2.72-4.26-6.4-4.26-11.04v-27.72h11.1v27.36c0 2.52.44 4.38 1.32 5.58.92 1.16 2.38 1.74 4.38 1.74s3.44-.6 4.32-1.8c.88-1.2 1.32-3.04 1.32-5.52v-27.36h11.16v27.72zm20.007-1.38h-3.06v15.36h-11.1v-41.7h14.46c5.88 0 10.26 1.06 13.14 3.18 2.92 2.12 4.38 5.38 4.38 9.78 0 2.64-.62 4.84-1.86 6.6-1.2 1.76-3.14 3.34-5.82 4.74l10.38 17.4h-12.36l-8.16-15.36zm-3.06-7.56h3.72c3.84 0 5.76-1.94 5.76-5.82 0-1.8-.54-3.12-1.62-3.96-1.04-.84-2.62-1.26-4.74-1.26h-3.12v11.04zm26.107 22.92v-41.7h25.62l-1.14 7.86h-13.38v10.02h11.76v7.86h-11.76v15.96h-11.1zM23.077 60.223c5.56 0 10.34 1.76 14.34 5.28l-5.46 5.7c-1.52-1.08-2.9-1.86-4.14-2.34-1.2-.52-2.58-.78-4.14-.78-3 0-5.36 1.16-7.08 3.48-1.68 2.32-2.52 5.86-2.52 10.62 0 3.48.28 6.24.84 8.28.56 2 1.4 3.44 2.52 4.32 1.16.88 2.64 1.32 4.44 1.32 1.8 0 3.44-.38 4.92-1.14v-8.58h-4.74l-1.08-7.62h16.56v20.76c-2.16 1.44-4.6 2.56-7.32 3.36-2.72.8-5.4 1.2-8.04 1.2-13.04 0-19.56-7.32-19.56-21.96 0-4.56.88-8.48 2.64-11.76 1.8-3.32 4.24-5.84 7.32-7.56 3.08-1.72 6.58-2.58 10.5-2.58zm37.585 0c6.04 0 10.74 1.92 14.1 5.76 3.36 3.84 5.04 9.22 5.04 16.14 0 4.52-.76 8.44-2.28 11.76-1.48 3.28-3.66 5.8-6.54 7.56-2.88 1.76-6.32 2.64-10.32 2.64-6.04 0-10.74-1.92-14.1-5.76-3.32-3.84-4.98-9.24-4.98-16.2 0-4.52.74-8.42 2.22-11.7 1.52-3.28 3.7-5.8 6.54-7.56 2.88-1.76 6.32-2.64 10.32-2.64zm0 7.98c-2.6 0-4.52 1.08-5.76 3.24-1.2 2.16-1.8 5.72-1.8 10.68s.62 8.54 1.86 10.74c1.24 2.16 3.14 3.24 5.7 3.24 2.64 0 4.56-1.08 5.76-3.24 1.2-2.16 1.8-5.74 1.8-10.74 0-4.96-.6-8.52-1.8-10.68-1.2-2.16-3.12-3.24-5.76-3.24zm31.215 14.8h20.012v1H91.877z" fill="#fff"/></svg>
